X: 40706
T: Tosa, The
R: waltz
M: 3/4
K: Gmajor
|:D GA|B3d BB|c3A D2|AB BA GD|E<G G2 (3GFE|
D3E G2|D3E G2|D2 G2 B2|A2 zD GA|
B3d BB|c3A D2|AB BA GD|E<G G2 (3GFE|
D3E G2|D2 B2 A2|G3A GF|G3:|
|:d ef|g2 d3g|e2 d3c|AB BA GD|E<G G2 (3GFE|
D3E G2|B2 c2 d2|e2 e2 ga|f3d (3def|
g2 d3g|e2 d3c|AB BA GD|E<G G2 (3GFE|
D3E G2|B2 g2 B2|A2 A2 G2|G3:|

